X:1
L:1/8
M:4/4
K:C
[M:4/4][K:D] ea C[Q:1/8=300](3ABc | d2 F2 A2 BA | G2 C2 E3 D | CDEF GFGA | BAAG A2 (3ABc | 
 d2 F2 A2 BA | G2 C2 E3 f | gfed cABc | e2 dc d2 :| AG | F2 A2 dfed | c2 B2 G4 | c2 B2 GFGA | 
 B2 A2 A2 AG | F2 A2 dfed | c2 B2 G4 | gfed cABc | e2 dc d2 :|
